!!!OTL: Geming daolu yaorenqing
!!!ARE: Asia, China,ÿJiangxi Ruijin
!! IV, 217
!!!SCT: C1798
!!!YEM: Copyright 1995, estate of Helmut Schaffrath.
**kern
*ICvox
*Ivox
*M2/4
*k[f#c#]
*D:
{8b
16b
16a
8b
8dd
=1
4ee
4ff#
=2
8ee
8a
8b
16ee
16dd
=3
2b}
=4
{8dd
16dd
16ee
8f#
8a
=5
4b
8ee
8b
=6
2a}
=7
{8b
16b
16a
8b
8dd
=8
4ee
4ff#
=9
8ee
8a
8b
16ee
16dd
=10
2b}
=11
{8dd
16dd
16ee
8f#
8a
=12
4b
8ee
8b
=13
2a}
=14
{4ee
4ff#
=15
4a
4b
=16
8dd
16dd
8ee
16f#
8a
=17
4b
8ee
8b
=18
2a}
==
!!!AGN: Xiaodiao
!!!AMT: simple duple
!!!AIN: vox
!!!EED: Helmut Schaffrath
!!!EEV: 1.0
*-
